X:1
T:Alle, psallite cum luya
T:Fra 1200-tallet
%%score [ 1 2 3 ]
L:1/8
M:6/8
K:C
V:1 treble nm="Voice"
V:2 treble nm="Voice"
V:3 treble nm="Voice"
V:1
 d3 c3 | d2 c B2 c | (d3 c/B/ A2) | (A3 z3 | A3 G3 | A3) z3 | d3 (c2 d) | e2 e (dc) B | c2 A B2 c | %9
w: Al- le,|psal- li- te cum|lu- * * *|ya,|_ _||Al- le, _|con- cre- pan- * do|psal- li- te cum|
 (d3 c/B/ A2) | (A3 z3 | B3 B3 | A3 G3 | A3) z3 | d3 (c2 d) | e2 e d2 e | f2 d e2 c | d2 c B2 c | %18
w: lu- * * *|ya,|_ _|||Al- le, _|cor de- vo- to|De- o to- to|psal- li- te cum|
 (d3 c/B/ A2) | (A3 z3 | B3 d2 B | c2 d B2 c | A2 G B2 G | A3) z3 | d3 (c d2) | (e3 d/c/Bc) | %26
w: lu- * * *|ya|_ _ _||||Al- le- *|lu- * * * *|
 d3 z3 |] %27
w: ya.|
V:2
 (A3 z3 | A3 G3 | A3) z3 | d3 c3 | d2 c B2 c | (d3 c/B/ A2) | (A3 z3 | B3 B3 | A3 G3 | A3) z3 | %10
w: Al|_ _||Al- le,|psal- li- te cum|lu- * * *|ya,|_ _|||
 d3 (c2 d) | e2 e d2 B | c2 A B2 c | (d3 c/B/ A2) | (A3 z3 | B3 d2 B | c2 d B2 c | A2 G B2 G | %18
w: Al- le, _|con- cre- pan- do|psal- li- te cum|lu- * * *|ya,|_ _ _|||
 A3) z3 | d3 (c2 d) | e2 e d2 e | f2 d (ed)c | d2 c B2 c | (d3 c/B/ A2) | A3 A3 | (B2 c) (BAG) | %26
w: |Al- le, _|cor de- vo- to|De- o to- * to|psal- li- te cum|lu- * * *|ya, Al-|le- * lu- * *|
 A3 z3 |] %27
w: ya.|
V:3
 D3 (F2 E) | (D3 E3) | D3 z3 | D3 (F2 E) | (D3 E3) | D3 z3 | (D3 F3) | (E3 G3) | (F3 E3) | D3 z3 | %10
w: Al- le- *|lu- *|ya|Al- le- *|lu- *|ya|Al- *|le- *|lu- *|ya|
 (D3 F3) | (E3 G3) | (F3 E3) | D3 z3 | (D3 F3) | (E3 G3) | (F2 G E2 F | D2 C E3) | D3 z3 | %19
w: Al *|le- *|lu- *|ya|Al- *|le- *|lu- * * *||ya|
 (D3 F3) | (E3 G3) | (F2 G E2 F | D2 C E3) | D3 z3 | D3 F3 | E6 | D3 z3 |] %27
w: Al- *|le- *|lu- * * *||ya|Al- le-|lu-|ya.|

